X:1
T:Title
%%score { ( 1 3 ) | 2 }
L:1/8
M:6/8
K:F
V:1 treble nm="Grand Piano"
V:3 treble 
V:2 bass 
V:1
 z3 z2[Q:1/4=104] C | F2 F F2 F | D C2 F2 [EG] | A2 F [EG]2 [EA] | F3- F2 F | A2 A A2 A | %6
 G F2- F2 F | G2 G A2 G | [EG]3- [EG]2 C | F2 F F2 F |[M:5/8] DC- C3 |[M:1/8] A | %12
[M:3/4] c2 c c2 A | c3 A3 | G2 A =B2 c | d3 G3 | [Cc]3- [C-Fc-]3 |[M:3/8] [CGc]3 | [Ec]3 | %19
[M:3/4] F6 | z c- c3 z | z2 z G A2 | F6 | F6 | z c- c3 z | d2 G G2 A | [FG]3 [Ec]3 | F6 | %28
 z c- c3 z | [FB]2 [FA] [FB]2 [Fc] | [Fd]3 [Fdf]3 | [Fc]4- [Fc][FA] | [FA]3 [EG]3 | [CF]6- | %34
[M:3/8] [CF]3 |] %35
V:2
 z3 z2 [F,A,] | [F,A,C]2 [F,A,C] [F,A,C]2 [F,A,C] | [F,B,] [F,A,]2 [F,A,C]2 [C,C] | %3
 [F,CF]2 [F,A,] [C,B,]2 [C,C] | [F,A,]3- [F,A,]2 [F,A,] | [F,CF]2 [F,CF] [F,CF]2 [F,CF] | %6
 [F,B,E] [F,A,]2- [F,A,]2 [F,C] | [G,=B,F]2 [G,B,F] [G,B,F]2 [G,B,F] | [C,C]3- [C,C]2 [C,B,] | %9
 [F,A,C]2 [F,A,C] [F,A,C]2 [F,A,C] |[M:5/8] [F,B,][F,A,]- [F,A,]3 |[M:1/8] [F,CF] | %12
[M:3/4] [F,A,F]2 [F,A,F] [F,A,F]2 [F,CF] | [F,A,F]3 [^F,C_E]3 | [G,CE]2 [G,CE] [G,DF]2 [G,CF] | %15
 [G,=B,F]3 [G,DF]3 | C,3 D,3 |[M:3/8] E,3 | [C,B,]3 |[M:3/4] [F,A,C]2 [F,A,] [F,A,]2 [C,C] | %20
 [F,CF]2 [F,A,] [F,A,]2 [F,CF] | [C,B,]2 [C,A,] [C,B,]2 [C,C] | [F,A,C]2 [F,B,] [F,A,]2 [F,A,] | %23
 [F,A,C]2 [F,A,] [F,A,]2 [C,C] | [F,CF]2 [F,A,] [F,A,]2[K:treble] [A,CF] | %25
 [G,=B,F]2 [G,B,F] [G,B,F]2 [G,B,F] | [C,C]3 [C,B,]3 | [F,A,C]2 [F,A,] [F,A,]2 [C,C] | %28
 [F,CF]2 [F,A,] [F,A,]2 [_E,C] | [D,B,]2 [_E,C] [D,B,]2 [F,A,] | [B,,B,]3 [=B,,_A,]3 | %31
 [C,A,]4- [C,A,][C,C] | [C,C]3 [C,B,]3 | [F,A,]6- |[M:3/8] [F,A,]3 |] %35
V:3
 x6 | x6 | x6 | x6 | x6 | x6 | x6 | x6 | x6 | x6 |[M:5/8] x5 |[M:1/8] x |[M:3/4] x6 | x6 | x6 | %15
 x6 | E4 z2 |[M:3/8] x3 | x3 |[M:3/4] z2 C C2 [EG] | .A2 F F2 A | [EA]2 [E^F] E2 E | z2 D C2 C | %23
 z2 C C2 [EG] | .A2 F F2 c | x6 | x6 | z2 C C2 [EG] | .A2 F F2 [FA] | x6 | x6 | x6 | x6 | x6 | %34
[M:3/8] x3 |] %35

